Simply-Green-Circles/scalable/apps/yubikey-personalization-gui.svg

<svg xmlns="http://www.w3.org/2000/svg" width="48" height="48" viewBox="0 0 12.7 12.7"><path d="M6.34.07a6.29 6.29 0 0 0-6.29 6.3 6.29 6.29 0 0 0 6.3 6.28 6.29 6.29 0 0 0 6.28-6.29A6.29 6.29 0 0 0 6.34.07zM6.32 1l.01.01a5.4 5.4 0 0 1 5.4 5.4 5.4 5.4 0 0 1-5.4 5.41 5.4 5.4 0 0 1-5.41-5.4A5.4 5.4 0 0 1 6.32 1zm1.62 5.88l-.04.42a1.26 1.25 0 0 0-.37.21l-.38-.18-.4.69.35.24a1.26 1.25 0 0 0-.02.2 1.26 1.25 0 0 0 .02.22l-.35.24.4.69.38-.18a1.26 1.25 0 0 0 .37.2l.04.43h.8l.03-.42a1.26 1.25 0 0 0 .37-.21l.38.18.4-.69-.34-.24a1.26 1.25 0 0 0 .02-.21 1.26 1.25 0 0 0-.02-.21l.34-.24-.4-.69-.38.18a1.26 1.25 0 0 0-.37-.2l-.03-.43h-.8zm.4 1.14a.46.45 0 0 1 .46.45.46.45 0 0 1-.46.45.46.45 0 0 1-.46-.45.46.45 0 0 1 .46-.45z" fill="#2ca02c"/><g stroke="#2ca02c" fill="none" stroke-width="4" stroke-linecap="round" stroke-linejoin="round"><path d="M3.84 8.2l3.7-5.02M3.31 3.18l2.12 2.38" stroke-width="1.05832"/></g></svg>

<?xml version="1.0" encoding="UTF-8" standalone="no"?>
<svg
   xmlns:dc="http://purl.org/dc/elements/1.1/"
   xmlns:cc="http://creativecommons.org/ns#"
   xmlns:rdf="http://www.w3.org/1999/02/22-rdf-syntax-ns#"
   xmlns:svg="http://www.w3.org/2000/svg"
   xmlns="http://www.w3.org/2000/svg"
   xmlns:sodipodi="http://sodipodi.sourceforge.net/DTD/sodipodi-0.dtd"
   xmlns:inkscape="http://www.inkscape.org/namespaces/inkscape"
   width="48"
   height="48"
   viewBox="0 0 12.7 12.7"
   version="1.1"
   id="svg8"
   sodipodi:docname="yubikey-personalization-gui.svg"
   inkscape:version="0.92.4 (5da689c313, 2019-01-14)">
  <metadata
     id="metadata14">
    <rdf:RDF>
      <cc:Work
         rdf:about="">
        <dc:format>image/svg+xml</dc:format>
        <dc:type
           rdf:resource="http://purl.org/dc/dcmitype/StillImage" />
        <dc:title></dc:title>
      </cc:Work>
    </rdf:RDF>
  </metadata>
  <defs
     id="defs12" />
  <sodipodi:namedview
     pagecolor="#ffffff"
     bordercolor="#666666"
     borderopacity="1"
     objecttolerance="10"
     gridtolerance="10"
     guidetolerance="10"
     inkscape:pageopacity="0"
     inkscape:pageshadow="2"
     inkscape:window-width="1087"
     inkscape:window-height="480"
     id="namedview10"
     showgrid="false"
     inkscape:zoom="4.9166667"
     inkscape:cx="2.1355932"
     inkscape:cy="24"
     inkscape:window-x="0"
     inkscape:window-y="25"
     inkscape:window-maximized="0"
     inkscape:current-layer="svg8" />
  <path
     d="M 6.34,0.07 A 6.29,6.29 0 0 0 0.05,6.37 6.29,6.29 0 0 0 6.35,12.65 6.29,6.29 0 0 0 12.63,6.36 6.29,6.29 0 0 0 6.34,0.07 Z M 6.32,1 6.33,1.01 a 5.4,5.4 0 0 1 5.4,5.4 5.4,5.4 0 0 1 -5.4,5.41 A 5.4,5.4 0 0 1 0.92,6.42 5.4,5.4 0 0 1 6.32,1 Z M 7.94,6.88 7.9,7.3 A 1.26,1.25 0 0 0 7.53,7.51 L 7.15,7.33 6.75,8.02 7.1,8.26 A 1.26,1.25 0 0 0 7.08,8.46 1.26,1.25 0 0 0 7.1,8.68 L 6.75,8.92 7.15,9.61 7.53,9.43 a 1.26,1.25 0 0 0 0.37,0.2 l 0.04,0.43 h 0.8 L 8.77,9.64 A 1.26,1.25 0 0 0 9.14,9.43 L 9.52,9.61 9.92,8.92 9.58,8.68 A 1.26,1.25 0 0 0 9.6,8.47 1.26,1.25 0 0 0 9.58,8.26 L 9.92,8.02 9.52,7.33 9.14,7.51 A 1.26,1.25 0 0 0 8.77,7.31 L 8.74,6.88 Z m 0.4,1.14 A 0.46,0.45 0 0 1 8.8,8.47 0.46,0.45 0 0 1 8.34,8.92 0.46,0.45 0 0 1 7.88,8.47 0.46,0.45 0 0 1 8.34,8.02 Z"
     id="path2"
     inkscape:connector-curvature="0"
     style="fill:#2ca02c" />
  <g
     id="g6"
     style="fill:none;stroke:#2ca02c;stroke-width:4;stroke-linecap:round;stroke-linejoin:round">
    <path
       d="m 3.84,8.2 3.7,-5.02 m -4.23,0 2.12,2.38"
       id="path4"
       inkscape:connector-curvature="0"
       style="stroke-width:1.05832005" />
  </g>
</svg>
